src/rounded/icons/fi-rr-text.svg

<svg id="Layer_1" height="512" viewBox="0 0 24 24" width="512" xmlns="http://www.w3.org/2000/svg" data-name="Layer 1"><path d="m19 0h-14a5.006 5.006 0 0 0 -5 5v14a5.006 5.006 0 0 0 5 5h14a5.006 5.006 0 0 0 5-5v-14a5.006 5.006 0 0 0 -5-5zm3 19a3 3 0 0 1 -3 3h-14a3 3 0 0 1 -3-3v-14a3 3 0 0 1 3-3h14a3 3 0 0 1 3 3zm-4-10a1 1 0 0 1 -2 0 1 1 0 0 0 -1-1h-2v8h1a1 1 0 0 1 0 2h-4a1 1 0 0 1 0-2h1v-8h-2a1 1 0 0 0 -1 1 1 1 0 0 1 -2 0 3 3 0 0 1 3-3h6a3 3 0 0 1 3 3z"/></svg>

<svg id="Layer_1" data-name="Layer 1" xmlns="http://www.w3.org/2000/svg" viewBox="0 0 24 24"><path d="M19,0H5A5.006,5.006,0,0,0,0,5V19a5.006,5.006,0,0,0,5,5H19a5.006,5.006,0,0,0,5-5V5A5.006,5.006,0,0,0,19,0Zm3,19a3,3,0,0,1-3,3H5a3,3,0,0,1-3-3V5A3,3,0,0,1,5,2H19a3,3,0,0,1,3,3ZM18,9a1,1,0,0,1-2,0,1,1,0,0,0-1-1H13v8h1a1,1,0,0,1,0,2H10a1,1,0,0,1,0-2h1V8H9A1,1,0,0,0,8,9,1,1,0,0,1,6,9,3,3,0,0,1,9,6h6A3,3,0,0,1,18,9Z"/></svg>
